src/img/icons/icon-arrow-right.svg

<svg width="5" height="11" viewBox="0 0 5 11" fill="none" xmlns="http://www.w3.org/2000/svg">
<path fill-rule="evenodd" clip-rule="evenodd" d="M5.00474 5.17902C5.00474 4.99989 4.94465 4.82074 4.82541 4.68487L1.06019 0.387893C0.82009 0.113982 0.43168 0.113982 0.192385 0.387893C-0.04703 0.661078 -0.04703 1.10421 0.192385 1.3774L3.5241 5.17902L0.192955 8.98113C-0.046455 9.25431 -0.046455 9.69745 0.192955 9.97087C0.432365 10.2438 0.82078 10.2438 1.06019 9.97087L4.82541 5.67366C4.94523 5.53779 5.00474 5.35792 5.00474 5.17902Z" fill="#8D8D8D"/>
</svg>

<svg width="5" height="11" fill="none" xmlns="http://www.w3.org/2000/svg"><path fill-rule="evenodd" clip-rule="evenodd" d="M5.005 5.179a.75.75 0 00-.18-.494L1.06.388a.56.56 0 00-.868 0 .771.771 0 000 .99l3.332 3.801L.193 8.981a.772.772 0 000 .99c.24.273.628.273.867 0l3.765-4.297a.749.749 0 00.18-.495z" fill="#8D8D8D"/></svg>
